X:4634
L:1/8
M:4/4
K:C
 BEA |[M:2/2][K:D]SOSOO .!fermata!PMTuCO{Mg}fe | dAFA DAFA | dAGA DAFA | (3(Bcd) ef gefd | 
 edcB Agfe | dAFA DAFA | dAGA D2 FA | B>ged cABc | d2 f2 d2 :: (fg) | afdf .A>(dcd) | 
 .F>(dcd) .A>(dcd) | (3(Bcd) ef gefd | cdef e2 (b^g) | afdf .A>(dcd) | .F>(dcd) .A>(dcd) | 
 B>ged cABc | d2 f2 d2 :|

